!!!COM:	W.A. Mozart
!!!OTL:	Quartet No.1 in G Major, K.80, Mvmnt. 2
**kern	**kern	**kern	**kern
*part4	*part3	*part2	*part1
*staff4	*staff3	*staff2	*staff1
*I"Cello	*I"Viola	*I"Violin II	*I"Violin I
*I'Vc.	*I'Vla.	*I'Vln. II	*I'Vln. I
*clefF4	*clefC3	*clefG2	*clefG2
*k[f#]	*k[f#]	*k[f#]	*k[f#]
*G:	*G:	*G:	*G:
*M4/4	*M4/4	*M4/4	*M4/4
=1	=1	=1	=1
4G	8GL	4G 4d 4b	4d 4b 4gg
.	8G	.	.
.	.	32qqcc/	32qqaa/
4r	8G	(16bLL	(16ggLL
.	.	16a	16ff#
.	8GJ	16b	16gg
.	.	16ccJJ	16aaJJ
2r	8GL	8bL)	8ggL)
.	8G	8b'	8gg'
.	8G	8a'	8ff#'
.	8GJ	8cc'J	8aa'J
=2	=2	=2	=2
1r	8GL	8b'L	8gg'L
.	8G	8g'	8bb'
.	8G	8f#'	8aa'
.	8GJ	8a'J	8ccc'J
.	4G	8g'	8bb'
.	.	8r	8r
.	4r	4r	4r
=3	=3	=3	=3
2G	2g	2G 2d 2b 2gg	2G 2d 2b 2gg
2E	2d	2dd	2dd
=4	=4	=4	=4
16qqC/	16qqc/	16qqcc/	16qqcc/
4BB	4B	4b	4b
8AAL	8AL	8aL	8aL
8GGJ	8GJ	8gJ	8gJ
4D	4d	4dd	4dd
4r	4D	4d	4d
=5	=5	=5	=5
4G	8GL	4g	4g
.	8G	.	.
.	.	32qqcc/	32qqaa/
4r	8G	(16bLL	(16ggLL
.	.	16a	16ff#
.	8GJ	16b	16gg
.	.	16ccJJ	16aaJJ
2r	8GL	8bL)	8ggL)
.	8G	8b'	8gg'
.	8G	8a'	8ff#'
.	8GJ	8cc'J	8aa'J
=6	=6	=6	=6
1r	8GL	8b'L	8gg'L
.	8G	8g'	8bb'
.	8G	8f#'	8aa'
.	8GJ	8a'J	8ccc'J
.	4G	8g'	8bb'
.	.	8r	8r
.	4r	4r	4r
=7	=7	=7	=7
2G	2g	2G 2d 2b 2gg	2G 2d 2b 2gg
2D	2d	2dd	2dd
=8	=8	=8	=8
16qqC/	16qqc/	16qqcc/	16qqcc/
4BB	4B	4b	4b
8AAL	8AL	8aL	8aL
8GGJ	8GJ	8gJ	8gJ
4D	4d	4dd	4dd
4r	4D	4d	4d
=9	=9	=9	=9
8GL	16GLL	16gLL	4G 4g
.	16B	16d	.
8G	16B	16d	.
.	16BJJ	16dJJ	.
8G	16BLL	16dLL	4r
.	16B	16d	.
8GJ	16B	16d	.
.	16BJJ	16dJJ	.
8GL	2B	2d	4.gg
8G	.	.	.
8G	.	.	.
8GJ	.	.	(16bbLL
.	.	.	16aaJJ)
=10	=10	=10	=10
8AL	2c	2d	4ff#
8A	.	.	.
8A	.	.	4r
8AJ	.	.	.
8DL	2c	2f#	4.aa
8D	.	.	.
8D	.	.	.
8DJ	.	.	(16cccLL
.	.	.	16aaJJ)
=11	=11	=11	=11
8GGL	2B	16gLL	4gg
.	.	16d	.
8GG	.	16d	.
.	.	16dJJ	.
8GG	.	16dLL	4r
.	.	16d	.
8GGJ	.	16d	.
.	.	16dJJ	.
8GL	2B	2d	4.gg
8G	.	.	.
8G	.	.	.
8GJ	.	.	(16bbLL
.	.	.	16ggJJ)
=12	=12	=12	=12
8AL	2c	2d	4ff#
8A	.	.	.
8A	.	.	4r
8AJ	.	.	.
8DL	2c	2f#	4.aa
8D	.	.	.
8D	.	.	.
8DJ	.	.	(16cccLL
.	.	.	16aaJJ)
=13	=13	=13	=13
8GL	8BL	8gL	8ggL
8GG	8G	8G	8G
8AA	8A	8A	8A
8BBJ	8BJ	8BJ	8BJ
8CL	8cL	8cL	8cL
8D	8d	8d	8d
8E	8e	8e	8e
8F#J	8f#J	8f#J	8f#J
=14	=14	=14	=14
8GL	8gL	8gL	8gL
8F#	8f#	8f#	8f#
8E	8e	8e	8e
8DJ	8dJ	8dJ	8dJ
8CL	8cL	8cL	8cL
8BB	8B	8B	8B
8AA	8A	8A	8A
8GGJ	8GJ	8GJ	8GJ
=15	=15	=15	=15
4D	4d	4d	4d
4d	4dd	4d 4a 4ff#	4d 4a 4ff#
4D	4d	4d 4a 4ff#	4d 4a 4ff#
4r	4r	4r	4r
=16	=16	=16	=16
1r	1r	1r	2dd
.	.	.	4ff#
.	.	.	4aa
=17	=17	=17	=17
1r	1r	2dd	2.ddd
.	.	4ff#	.
.	.	4aa	4eee
=18	=18	=18	=18
1r	2d	4ddd	4fff#
.	.	2ddd	2fff#
.	4f#	.	.
.	4a	(8eeeL	(8gggL
.	.	8ccc#XJ)	8eeeJ)
=19	=19	=19	=19
2D	4dd	4ddd	4fff#
.	2a	2dd	2ff#
4F#	.	.	.
4A	4a	(8eeL	(8ggL
.	.	8cc#XJ)	8eeJ)
=20	=20	=20	=20
2D	4f# 4a	4dd	2dd
.	4r	4r	.
4F#	2r	2r	4ff#
4A	.	.	4aa
=21	=21	=21	=21
4d	8dL	2r	16dddLL
.	.	.	16aa
.	8f#	.	16bb
.	.	.	16aaJJ
4r	8d	.	16dddLL
.	.	.	16aa
.	8f#J	.	16bb
.	.	.	16aaJJ
2r	4d	16dddLL	8ddd
.	.	16aa	.
.	.	16bb	8r
.	.	16aaJJ	.
.	4r	16dddLL	4r
.	.	16aa	.
.	.	16bb	.
.	.	16aaJJ	.
=22	=22	=22	=22
8AL	4c#X	[1aa	4ggg
8A	.	.	.
8A	2d	.	2fff#
8AJ	.	.	.
8AL	.	.	.
8A	.	.	.
8A	4c#	.	4eee
8AJ	.	.	.
=23	=23	=23	=23
4D	8dL	4aa]	16dddLL
.	.	.	16aa
.	8f#	.	16bb
.	.	.	16aaJJ
4r	8d	4r	16dddLL
.	.	.	16aa
.	8f#J	.	16bb
.	.	.	16aaJJ
2r	4d	16dddLL	8ddd
.	.	16aa	.
.	.	16bb	8r
.	.	16aaJJ	.
.	4r	16dddLL	4r
.	.	16aa	.
.	.	16bb	.
.	.	16aaJJ	.
=24	=24	=24	=24
8AL	4c#X	1aa	4ggg
8A	.	.	.
8A	2d	.	2fff#
8AJ	.	.	.
8AL	.	.	.
8A	.	.	.
8A	4c#	.	4eee
8AJ	.	.	.
=25	=25	=25	=25
8DL	4d	16aaLL	4ddd
.	.	16dd	.
8D	.	16cc#X	.
.	.	16ddJJ	.
8F#	2d	16ccnLL	4r
.	.	16dd	.
8GJ	.	16b	.
.	.	16ddJJ	.
8F#L	.	16aLL	2r
.	.	16dd	.
8G	.	16b	.
.	.	16ddJJ	.
8A	4d	16ccLL	.
.	.	16dd	.
8F#J	.	16b	.
.	.	16ddJJ	.
=26	=26	=26	=26
4G	4d	4b	16r
.	.	.	16gLL
.	.	.	16a
.	.	.	16bJJ
4r	4r	4r	16ccLL
.	.	.	16dd
.	.	.	16ee
.	.	.	16ff#JJ
2r	2r	16r	16ggLL
.	.	16bLL	16dd
.	.	16cc	16ee
.	.	16ddJJ	16ff#JJ
.	.	16eeLL	16ggLL
.	.	16ff#	16aa
.	.	16gg	16bb
.	.	16aaJJ	16cccJJ
=27	=27	=27	=27
8GL	1r	2bb	2ddd
8G	.	.	.
8G	.	.	.
8GJ	.	.	.
8GL	.	4aa	4ccc#X
8G	.	.	.
8G	.	4gg	4bb
8GJ	.	.	.
=28	=28	=28	=28
8AL	(2.a	(4.ff#	(4.aa
8A	.	.	.
8A	.	.	.
8AJ	.	8gg)	8bb)
8AAL	.	4ff#	4dd
8AA	.	.	.
8AA	4g)	4ee	4cc#X
8AAJ	.	.	.
=29	=29	=29	=29
4D	4f#	4dd	16dLL
.	.	.	16dd
.	.	.	16cc#X
.	.	.	16ddJJ
8AL	2d	4r	16ccnLL
.	.	.	16dd
8GJ	.	.	16b
.	.	.	16ddJJ
8F#L	.	2r	16aLL
.	.	.	16dd
8G	.	.	16b
.	.	.	16ddJJ
8A	4d	.	16ccLL
.	.	.	16dd
8F#J	.	.	16a
.	.	.	16ddJJ
=30	=30	=30	=30
4G	4d	16r	4b
.	.	16gLL	.
.	.	16a	.
.	.	16bJJ	.
4r	4r	16ccLL	4r
.	.	16dd	.
.	.	16ee	.
.	.	16ff#JJ	.
2r	2r	16ggLL	16r
.	.	16dd	16bLL
.	.	16ee	16cc
.	.	16ff#JJ	16ddJJ
.	.	16ggLL	16eeLL
.	.	16aa	16ff#
.	.	16bb	16gg
.	.	16cccJJ	16aaJJ
=31	=31	=31	=31
8GL	1r	2ddd	2bb
8G	.	.	.
8G	.	.	.
8GJ	.	.	.
8GL	.	4ccc#X	4aa
8G	.	.	.
8G	.	4bb	4gg
8GJ	.	.	.
=32	=32	=32	=32
8AL	(2.a	(4.aa	(4.ff#
8A	.	.	.
8A	.	.	.
8AJ	.	8bb)	8gg)
8AAL	.	(4dd	(4ff#
8AA	.	.	.
8AA	4g)	4cc#X)	4ee)
8AAJ	.	.	.
=33	=33	=33	=33
1D	4f#	4dd	4dd
.	16qqb/	.	16qqaa/
.	8aL	2d	8ggL
.	16gL	.	16ff#L
.	16f#JJ	.	16eeJJ
.	(8aL	.	(8ff#L
.	8f#J)	.	8aa)
.	4e	4g	8r
.	.	.	8cc#XJ
=34	=34	=34	=34
1D	2.d	4f#	4dd
.	.	16qqcc/	16qqaa/
.	.	8bL	8ggL
.	.	16aL	16ff#L
.	.	16gJJ	16eeJJ
.	.	(8aL	(8ff#L
.	.	8f#J)	8aa)
.	4e	4g	8r
.	.	.	8cc#XJ
=35	=35	=35	=35
4D	4d	4f#	4dd
4D	4d	4d 4a 4ff#	4d 4a 4ff#
4D	4d	4d 4a 4ff#	4d 4a 4ff#
4r	4r	4r	4r
=36:|!|:	=36:|!|:	=36:|!|:	=36:|!|:
1r	8ddL	1r	1dd
.	8cc#X	.	.
.	8b	.	.
.	8aJ	.	.
.	8bL	.	.
.	8a	.	.
.	8g	.	.
.	8f#J	.	.
=37	=37	=37	=37
1r	8gL	1r	1ee
.	8f#	.	.
.	8g	.	.
.	8eJ	.	.
.	8aL	.	.
.	8g	.	.
.	8a	.	.
.	8AJ	.	.
=38	=38	=38	=38
1r	8dL	1dd	1ff#
.	8c#X	.	.
.	8d	.	.
.	8eJ	.	.
.	8f#L	.	.
.	8e	.	.
.	8f#	.	.
.	8dJ	.	.
=39	=39	=39	=39
1r	8c#XL	[1ee	1gg
.	8d	.	.
.	8e	.	.
.	8dJ	.	.
.	8c#L	.	.
.	8A#X	.	.
.	8B	.	.
.	8c#J	.	.
=40	=40	=40	=40
1r	8dL	2ee]	1ff#
.	8c#X	.	.
.	8B	.	.
.	8AJ	.	.
.	8BL	[2dd	.
.	8A	.	.
.	8G	.	.
.	8F#J	.	.
=41	=41	=41	=41
1r	8GL	2dd]	1ee
.	8F#	.	.
.	8G	.	.
.	8EJ	.	.
.	8AL	2cc#X	.
.	8G	.	.
.	8F#	.	.
.	8EJ	.	.
=42	=42	=42	=42
1r	[1D	(8ddL	(8ff#L
.	.	8ee	8gg
.	.	8dd	8ff#
.	.	8ccJ	8eeJ
.	.	8bL	8ddL
.	.	8a	8cc
.	.	8g	8b
.	.	8f#J)	8aJ)
=43	=43	=43	=43
1GG	4D]	(8gL	(8bL
.	.	8a	8cc
.	4r	8b	8dd
.	.	8ccJ	8eeJ
.	2r	8ddL	8ff#L
.	.	8ee	8gg
.	.	8ff#	8aa
.	.	8ggJ)	8bbJ)
=44	=44	=44	=44
1AA	1r	(8ggL	[2ccc
.	.	8ee	.
.	.	8aa	.
.	.	8ggJ	.
.	.	[2ff#)	(8cccL]
.	.	.	8aa
.	.	.	8ddd
.	.	.	8ccc#XJ)
=45	=45	=45	=45
1BB	1G	(8ff#L]	(8dddL
.	.	8dd	8ccc
.	.	8gg	8bb
.	.	8ff#J	8aaJ
.	.	8eeL	8ggL
.	.	8dd	8ff#
.	.	8cc	8ee
.	.	[8bJ)	8ddJ)
=46	=46	=46	=46
1C	1A	(8bL]	(4.ee
.	.	8g	.
.	.	8cc	.
.	.	8bJ	8dd
.	.	8aL	8ccL
.	.	8b	8dd
.	.	8a	8cc
.	.	8gJ)	8bJ)
=47	=47	=47	=47
4D	4d	4f#	4a
4F#	4r	8r	8r
.	.	8a'	8cc'
4G	2r	(8aL	(8ccL
.	.	8gJ)	8bJ)
4B	.	8r	8r
.	.	8b	8gg'
=48	=48	=48	=48
4D	4d	4a	4d 4a 4ff#
4F#	4r	8r	8r
.	.	8a'	8cc'
4G	2r	(8aL	(8ccL
.	.	8gJ)	8bJ)
4B	.	8r	8r
.	.	8b'	8gg'
=49	=49	=49	=49
4D	4d	4a	4d 4a 4ff#
4d	4d	4d 4a 4ff#	4d 4a 4ff#
8DL	4d	4d 4a 4ff#	4d 4a 4ff#
8c	.	.	.
8B	4r	4r	4r
8AJ	.	.	.
=50	=50	=50	=50
4E	8GL	4G 4d 4b	4d 4b 4gg
.	8G	.	.
.	.	32qqcc/	32qqaa/
4r	8G	(16bLL	(16ggLL
.	.	16a	16ff#
.	8GJ	16b	16gg
.	.	16ccJJ	16aaJJ
2r	8GL	8bL)	8ggL)
.	8G	8b'	8gg'
.	8G	8a'	8ff#'
.	8GJ	8cc'J	8aa'J
=51	=51	=51	=51
1r	1r	8b'L	8gg'L
.	.	8g'	8bb'
.	.	8f#'	8aa'
.	.	8a'J	8ccc'J
.	.	8g'	8bb'
.	.	8r	8r
.	.	4r	4r
=52	=52	=52	=52
2G	2g	2G 2d 2b 2gg	2G 2d 2b 2gg
2D	2d	2dd	2dd
=53	=53	=53	=53
.	.	16qqcc/	16qqcc/
4BB	4B	4b	4b
8AAL	8AL	8aL	8aL
8GGJ	8GJ	8gJ	8gJ
4D	4d	4dd	4dd
4r	4D	4d	4d
=54	=54	=54	=54
4G	8GL	4G 4g	4G 4g
.	8G	.	.
4r	8G	(16bLL	(16ggLL
.	.	16a	16ff#
.	8GJ	16b	16gg
.	.	16ccJJ	16aaJJ
2r	8GL	8bL)	8ggL)
.	8G	8b'	8gg'
.	8G	8a'	8ff#'
.	8GJ	8cc'J	8aa'J
=55	=55	=55	=55
1r	8GL	8b'L	8gg'L
.	8G	8g'	8bb'
.	8G	8f#'	8aa'
.	8GJ	8a'J	8ccc'J
.	8G	8g'	8bb'
.	8r	8r	8r
.	4r	4r	4r
=56	=56	=56	=56
2G	2g	2ff#	2G 2d 2b 2gg
2D	2d	2cc	2dd
=57	=57	=57	=57
4BB	4B	4a	4b
8AAL	8AL	8gL	8aL
8GGJ	8GJ	8f#J	8gJ
4D	4d	4cc	4dd
4r	4D	4c	4d
=58	=58	=58	=58
8GL	16GLL	16gLL	4g
.	16B	16d	.
8G	16B	16d	.
.	16BJJ	16dJJ	.
8G	16BLL	16dLL	4r
.	16B	16d	.
8GJ	16B	16d	.
.	16BJJ	16dJJ	.
8GL	2B	2d	4.gg
8G	.	.	.
8G	.	.	.
8GJ	.	.	(16bbLL
.	.	.	16ggJJ)
=59	=59	=59	=59
8AL	2c	2d	4ff#
8A	.	.	.
8A	.	.	4r
8AJ	.	.	.
8DL	2c	2f#	4.aa
8D	.	.	.
8D	.	.	.
8DJ	.	.	(16cccLL
.	.	.	16aaJJ)
=60	=60	=60	=60
8GGL	2B	16gLL	4gg
.	.	16d	.
8GG	.	16d	.
.	.	16dJJ	.
8GG	.	16dLL	4r
.	.	16d	.
8GGJ	.	16d	.
.	.	16dJJ	.
8GL	2B	2d	4.gg
8G	.	.	.
8G	.	.	.
8GJ	.	.	(16bbLL
.	.	.	16ggJJ)
=61	=61	=61	=61
8AL	2c	2d	4ff#
8A	.	.	.
8A	.	.	4r
8AJ	.	.	.
8DL	2c	2f#	4.aa
8D	.	.	.
8D	.	.	.
8DJ	.	.	16cccLL
.	.	.	16aaJJ
=62	=62	=62	=62
8GL	8BL	8gL	8bbL
8GG	8G	8G	8G
8AA	8A	8A	8A
8BBJ	8BJ	8BJ	8BJ
8CL	8cL	8cL	8cL
8D	8d	8d	8d
8E	8e	8e	8e
8F#J	8f#J	8f#J	8f#J
=63	=63	=63	=63
8GL	8gL	8gL	8gL
8F#	8f#	8f#	8f#
8E	8e	8e	8e
8DJ	8dJ	8dJ	8dJ
8CL	8cL	8cL	8cL
8BB	8B	8B	8B
8AA	8A	8A	8A
8GGJ	8GJ	8GJ	8GJ
=64	=64	=64	=64
4D	4d	4d	4d
4d	4dd	4d 4a 4ff#	4d 4a 4ff#
4D	4d	4d 4a 4ff#	4d 4a 4ff#
4r	4r	4r	4r
=65	=65	=65	=65
1r	1r	1r	2g
.	.	.	4b
.	.	.	4dd
=66	=66	=66	=66
1r	1r	2g	4gg
.	.	.	2gg
.	.	4b	.
.	.	4dd	4aa
=67	=67	=67	=67
1r	2G	4gg	4bb
.	.	2gg	2bb
.	4B	.	.
.	4d	(8aaL	(8cccL
.	.	8ff#J)	8aaJ)
=68	=68	=68	=68
2GG	4d	4gg	4bb
.	2d	2g	2b
4BB	.	.	.
4D	4d	(8aL	(8ccL
.	.	8f#J)	8aJ)
=69	=69	=69	=69
2G	4B 4d	4g	2g
.	4r	4r	.
4B	2r	2r	4b
4d	.	.	4dd
=70	=70	=70	=70
4G	8GL	2r	16ggLL
.	.	.	16dd
.	8B	.	16ee
.	.	.	16ddJJ
4r	8G	.	16ggLL
.	.	.	16dd
.	8BJ	.	16ff#
.	.	.	16ddJJ
2r	4G	16ggLL	8gg
.	.	16dd	.
.	.	16ee	8r
.	.	16ddJJ	.
.	4r	16ggLL	4r
.	.	16dd	.
.	.	16ee	.
.	.	16ddJJ	.
=71	=71	=71	=71
8DL	4F#	[1ddd	4ccc
8D	.	.	.
8D	2G	.	2bb
8DJ	.	.	.
8DL	.	.	.
8D	.	.	.
8D	4F#	.	4aa
8DJ	.	.	.
=72	=72	=72	=72
4GG	8GL	8ddd]	16ggLL
.	.	.	16dd
.	8B	8r	16ee
.	.	.	16ddJJ
4r	8G	4r	16ggLL
.	.	.	16dd
.	8BJ	.	16ff#
.	.	.	16ddJJ
2r	4G	16ggLL	8gg
.	.	16dd	.
.	.	16ee	8r
.	.	16ddJJ	.
.	4r	16ggLL	4r
.	.	16dd	.
.	.	16ee	.
.	.	16ddJJ	.
=73	=73	=73	=73
8DL	4F#	[1ddd	4ccc
8D	.	.	.
8D	2G	.	2bb
8DJ	.	.	.
8DL	.	.	.
8D	.	.	.
8D	4F#	.	4aa
8DJ	.	.	.
=74	=74	=74	=74
8GGL	4G	16dddLL]	4gg
.	.	16gg	.
8G	.	16ff#	.
.	.	16ggJJ	.
8B	2g	16ffnLL	4r
.	.	16gg	.
8cJ	.	16ee	.
.	.	16ggJJ	.
8BL	.	16ddLL	2r
.	.	16gg	.
8d	.	16ff	.
.	.	16ggJJ	.
8c	4g	16ddLL	.
.	.	16gg	.
8BJ	.	16ff	.
.	.	16ggJJ	.
=75	=75	=75	=75
4c	4g	4ee	16r
.	.	.	16cLL
.	.	.	16d
.	.	.	16eJJ
4r	4r	4r	16fnLL
.	.	.	16g
.	.	.	16a
.	.	.	16bJJ
2r	2r	16r	16ccLL
.	.	16ccLL	16ee
.	.	16dd	16ffn
.	.	16eeJJ	16ggJJ
.	.	16ffnLL	16aaLL
.	.	16gg	16bb
.	.	16aa	16ccc
.	.	16bbJJ	16dddJJ
=76	=76	=76	=76
8cL	1r	2ccc	2eee
8c	.	.	.
8c	.	.	.
8cJ	.	.	.
8cL	.	4bb	4ddd
8c	.	.	.
8c	.	4aa	4ccc
8cJ	.	.	.
=77	=77	=77	=77
8dL	2.d	(4.gg	(4.bb
8d	.	.	.
8d	.	.	.
8dJ	.	16aaLL	16cccLL
.	.	16bbJJ)	16dddJJ)
8DL	.	(4b	(4gg
8D	.	.	.
8D	4c	4a)	4ff#)
8DJ	.	.	.
=78	=78	=78	=78
4G	4B	4g	16gLL
.	.	.	16gg
.	.	.	16ff#
.	.	.	16ggJJ
8dL	2G	4r	16ffnLL
.	.	.	16gg
8cJ	.	.	16ee
.	.	.	16ggJJ
8BL	.	2r	16ddLL
.	.	.	16gg
8c	.	.	16cc
.	.	.	16ggJJ
8d	4g	.	16ffLL
.	.	.	16gg
8BJ	.	.	16dd
.	.	.	16ggJJ
=79	=79	=79	=79
4c	4g	16r	4ee
.	.	16cLL	.
.	.	16d	.
.	.	16eJJ	.
4r	4r	16fnLL	4r
.	.	16g	.
.	.	16a	.
.	.	16bJJ	.
2r	2r	16ccLL	16r
.	.	16ee	16ccLL
.	.	16ffn	16dd
.	.	16ggJJ	16eeJJ
.	.	16aaLL	16ffnLL
.	.	16bb	16gg
.	.	16ccc	16aa
.	.	16dddJJ	16bbJJ
=80	=80	=80	=80
8cL	1r	2eee	2ccc
8c	.	.	.
8c	.	.	.
8cJ	.	.	.
8cL	.	4ddd	4bb
8c	.	.	.
8c	.	4ccc	4aa
8cJ	.	.	.
=81	=81	=81	=81
8dL	2.d	(4.bb	(4.gg
8d	.	.	.
8d	.	.	.
8dJ	.	16cccLL	16aaLL
.	.	16dddJJ)	16bbJJ)
8DL	.	(4b	(4gg
8D	.	.	.
8D	4c	4a)	4ff#)
8DJ	.	.	.
=82	=82	=82	=82
[1G	4B	4g	4gg
.	16qqf#/	.	16qqddd/
.	8eL	2G	8cccL
.	16dL	.	16bbL
.	16cJJ	.	16aaJJ
.	(8dL	.	(8bbL
.	8BJ)	.	8dddJ)
.	4A	4c	8r
.	.	.	8ff#'
=83	=83	=83	=83
1G_	4G	4B	4gg
.	.	16qqf#/	16qqddd/
.	2G	8eL	8cccL
.	.	16dL	16bbL
.	.	16cJJ	16aaJJ
.	.	(8dL	(8bbL
.	.	8BJ)	8dddJ)
.	4A	4c	8r
.	.	.	8ff#'
=84	=84	=84	=84
4G]	4G	4B	4gg
4GG	4G	4d 4b 4gg	4d 4b 4gg
4GG	4G	4G 4d 4b 4gg	4G 4d 4b 4gg
4r	4r	4r	4r
=:|!	=:|!	=:|!	=:|!
*-	*-	*-	*-
!!!system-decoration: [(s1,s2,s3,s4)]
